source/img/icon_run.svg

<svg width="23" height="24" viewBox="0 0 23 24" fill="none" xmlns="http://www.w3.org/2000/svg">
<path d="M16.1882 6C17.2325 6 18.0791 5.10457 18.0791 4C18.0791 2.89543 17.2325 2 16.1882 2C15.1438 2 14.2972 2.89543 14.2972 4C14.2972 5.10457 15.1438 6 16.1882 6Z" fill="#1D2E5B"/>
<path d="M15.032 10.969C15.249 11.311 15.5603 11.5742 15.9237 11.7227C16.287 11.8712 16.6847 11.8978 17.0628 11.799L20.198 10.97L19.7413 9.02997L16.6062 9.85897L15.3024 7.79197C15.0238 7.35053 14.5915 7.04354 14.0998 6.93797L10.4635 6.16797C10.0568 6.08162 9.6344 6.13933 9.26171 6.33217C8.88902 6.52502 8.58673 6.84229 8.40151 7.23497L6.83394 10.551L8.52536 11.446L10.0929 8.12897L11.9526 8.52297L7.14405 17H2.9519V19H7.14405C7.80398 19 8.42514 18.628 8.76551 18.029L10.5789 14.833L15.4659 15.867L17.1829 21.316L18.9755 20.683L17.2595 15.235C17.1536 14.9005 16.9662 14.6014 16.7162 14.3679C16.4663 14.1345 16.1625 13.9748 15.8356 13.905L12.9624 13.298L14.6377 10.344L15.032 10.969Z" fill="#1D2E5B"/>
</svg>

<svg width="23" height="24" fill="none" xmlns="http://www.w3.org/2000/svg"><path d="M16.188 6c1.045 0 1.891-.895 1.891-2s-.846-2-1.89-2c-1.045 0-1.892.895-1.892 2s.847 2 1.891 2ZM15.032 10.969c.217.342.528.605.892.754a1.8 1.8 0 0 0 1.139.076l3.135-.829-.457-1.94-3.135.829-1.304-2.067a1.9 1.9 0 0 0-1.202-.854l-3.636-.77a1.797 1.797 0 0 0-1.202.164c-.373.193-.675.51-.86.903l-1.568 3.316 1.691.895 1.568-3.317 1.86.394L7.144 17H2.952v2h4.192c.66 0 1.281-.372 1.622-.971l1.813-3.196 4.887 1.034 1.717 5.449 1.793-.633-1.716-5.448a2.019 2.019 0 0 0-.544-.867 1.86 1.86 0 0 0-.88-.463l-2.874-.607 1.676-2.954.394.625Z" fill="#1D2E5B"/></svg>
